!!!OTL: SCHLAF HERZENSSOEHNCHEN
!!!ARE: Europa, Mitteleuropa, Deutschland
!!!SCT: F0070
!!!YEM: Copyright 1995, estate of Helmut Schaffrath.
**kern
*ICvox
*Ivox
*M3/8
*k[]
*C:
=1
{8g
8e
8f
=2
8.g
16dd
8cc
=3
8.b
16a
8b
=4
4cc
8r}
=5
{8.b
16b
8b
=6
8cc
8b
16ee
16dd
=7
8dd
8cc
16a
16b
=8
4g
8r}
=9
{8.g
16g
8g
=10
8a
8g
8g
=11
8g
8g
16g
16cc
=12
4cc
8r}
=13
{8.b
16a
8b
=14
16cc
16e
8e
16a
16g
=15
8.g
16f
16d
16e
=16
4c
8r}
==
!!!AGN: Schlaf -, Wiegen - Lied
!!!ONB: ESAC (Essen Associative Code) Database: FINK
!!!AMT: simple triple
!!!AIN: vox
!!!EED: Helmut Schaffrath
!!!EEV: 1.0
*-
